X:1
T:Title
%%score 1 2 3 4
L:1/8
Q:1/4=120
M:4/4
K:C
V:1 treble nm="Grand Piano"
V:2 treble nm="Grand Piano"
V:3 bass nm="Grand Piano, Melody"
V:4 bass nm="Grand Piano"
V:1
 z8 | z8 | z8 | e4 e4 | e2 d2 c2 c2 | B4 e2 e2 | e2 e2 e2 e2 | e2 e2 dc B2 | A4 z4 | z8 | z8 | %11
 z4 G2 c2 | B2 G2 A4 | c2 B2 A2 A2 | G4 G4 | e2 dc B2 cB | A4 z4 | z8 | z8 | z4 e2 e2 | %20
 e2 e2 e2 e2 | e2 e2 edcd | e4 c2 c2 | B2 B2 BcBA | G4 z4 | B2 B2 c2 c2 | B4 B2 B2 | cedc B2 B2 | %28
 A2 A2 G2 ED | E2 E2 A4 | z8 | z8 | B3 A G2 G2 | A4 z4 |] %34
V:2
 z8 | z8 | z4 E4 | E4 A2 G2 | G2 G2 A4 | G2 F2 E2 E2 | E4 E4 | G2 A2 F2 E2 | E4 z4 | z8 | %10
 z4 F2 F2 | E2 E2 E2 EF | G2 E2 A4 | G2 F2 E2 D2 | E4 E4 | G2 F2 E2 E2 | E4 z4 | z8 | z4 F2 F2 | %19
 E2 E2 E2 EF | G2 G2 GFED | E4 A2 A2 | A2 A2 E2 EF | G2 G2 G4 | G4 G2 G2 | G2 G2 A4 | B2 A2 G2 G2 | %27
 G2 A2 G2 GF | E2 E2 E2 E2 | E8 | z8 | E3 E E4 | E3 E E2 E2 | E4 z4 |] %34
V:3
 z8 | z4 E,4 | A,4 C2 C2 | B,2 B,2[K:treble] C4 | E6 F2 | E2 D2 C4 | B,4 B,4 | C2 CB, A,2 E,2 | %8
 A,4 z4 | z4 C2 A,2 | B,2 G,2 A,2 A,2 | B,2 B,2[K:treble] C4 | E2 C2 D2 F2 | E2 D2 C2[K:bass] A,2 | %14
 B,4 B,4 | C2 A,2 B,2 G,2 | A,4 E,2 E,2 | A,2 A,2 B,2 B,2 | C2 C2 DEDC | B,8 | B,2 B,2 B,2 B,2 | %21
 C8 | C2 C2 C2 C2 | D8 | D2 D2 D2 D2 | E8 | G2 F2 E2 D2 | E2 F2 E2 D2 | C4[K:bass] B,4 | A,8 | z8 | %31
 z8 | G,3 A, B,2 C2 | A,4 z4 |] %34
V:4
 z4 A,,4 | E,4 E,2 E,2 | D,2 D,2 C,4 | E,4 A,2 B,2 | C2 B,2 A,4 | E,4 E,4- | E,8 | %7
 C,2 C,2 D,2 E,2 | A,,4 A,2 A,2 | G,2 G,2 F,2 F,2 | E,2 E,2 F,2 D,2 | E,2 E,2 A,,4 | E,4 D,2 D,2 | %13
 C,2 D,2 E,2 F,2 | E,4 E,4 | C,2 D,2 E,2 E,2 | A,,4 z4 | z4 E,2 E,2 | A,2 A,2 D,2 D,2 | %19
 E,2 E,2 E,F,E,D, | E,8 | A,2 A,2 A,2 A,2 | A,8 | G,2 G,2 G,2 G,2 | G,8 | E,2 E,2 A,2 A,2 | E,8 | %27
 C,2 D,2 E,F, G,2 | A,4 E,4 | A,,8 | A,3 A, A,4 | z8 | E,3 E, E,2 E,2 | A,,4 z4 |] %34

